src/assets/img/gnb_logo.svg

<svg width="49" height="22" viewBox="0 0 49 22" fill="none" xmlns="http://www.w3.org/2000/svg">
<path d="M47.7434 1.21829C48.0835 0.877967 48.0835 0.595569 47.7434 0.255244C47.4034 -0.0850813 47.1212 -0.0850813 46.7811 0.255244C44.6145 2.4234 42.4479 4.59155 40.2812 6.7597C40.6017 7.08037 40.9232 7.40104 41.2436 7.72275C43.4102 5.5546 45.5768 3.38644 47.7434 1.21829V1.21829Z" fill="#55576F"/>
<path d="M35.0096 2.44306C31.83 -0.738831 26.6739 -0.738831 23.4943 2.44306C22.0564 3.88194 20.6186 5.32082 19.1797 6.76074C19.5001 7.08141 19.8216 7.40208 20.1421 7.72379C21.5799 6.28491 23.0178 4.84602 24.4567 3.4061C27.105 0.755911 31.3989 0.755911 34.0472 3.4061C38.2936 7.65552 42.54 11.9049 46.7854 16.1533C47.1255 16.4936 47.4077 16.4936 47.7477 16.1533C48.0878 15.813 48.0878 15.5306 47.7477 15.1903L35.0096 2.44306Z" fill="#55576F"/>
<path d="M38.3581 8.68267C36.9203 10.1216 35.4824 11.5615 34.0435 13.0004C31.3952 15.6505 27.1013 15.6505 24.4529 13.0004C20.9353 9.48021 17.4177 5.96006 13.9 2.43992C8.77085 -2.69289 0 0.942075 0 8.20166V20.8185C0 21.2995 0.199502 21.4992 0.680167 21.4992C1.16083 21.4992 1.36033 21.2995 1.36033 20.8185V12.7117C4.20711 16.9984 10.2625 17.6035 13.9 13.9634C15.3379 12.5245 16.7757 11.0856 18.2146 9.64572C17.8942 9.32504 17.5727 9.00334 17.2523 8.68267C15.8144 10.1216 14.3765 11.5615 12.9376 13.0004C8.66541 17.2756 1.36033 14.2479 1.36033 8.20166C1.36033 2.15545 8.66541 -0.872304 12.9376 3.40297C16.4553 6.92311 19.9729 10.4433 23.4906 13.9634C26.6702 17.1453 31.8262 17.1453 35.0059 13.9634C36.4437 12.5245 37.8816 11.0856 39.3205 9.64572C39 9.32504 38.6786 9.00334 38.3581 8.68267V8.68267Z" fill="#55576F"/>
</svg>

<svg width="49" height="22" fill="none" xmlns="http://www.w3.org/2000/svg"><path d="M47.7 1.2c.3-.3.3-.6 0-.9-.3-.3-.6-.3-.9 0l-6.5 6.5.9.9 6.5-6.5zM35 2.4c-3.2-3.1-8.3-3.1-11.5 0l-4.3 4.4.9.9 4.4-4.3C27.1.8 31.4.8 34 3.4l12.8 12.8c.3.3.6.3.9 0 .3-.4.3-.7 0-1L35 2.4z" fill="#55576F"/><path d="M38.4 8.7L34 13c-2.6 2.7-6.9 2.7-9.5 0L13.9 2.4C8.8-2.7 0 1 0 8.2v12.6c0 .5.2.7.7.7.5 0 .7-.2.7-.7v-8.1c2.8 4.3 8.9 4.9 12.5 1.3l4.3-4.4-.9-.9L13 13C8.7 17.3 1.4 14.2 1.4 8.2S8.7-.9 13 3.4L23.5 14c3.2 3.1 8.3 3.1 11.5 0l4.3-4.4-.9-.9z" fill="#55576F"/></svg>
